svgs/sharp-solid/arrow-down-square-triangle.svg

<svg xmlns="http://www.w3.org/2000/svg" viewBox="0 0 576 512"><!--! Font Awesome Pro 6.6.0 by @fontawesome - https://fontawesome.com License - https://fontawesome.com/license (Commercial License) Copyright 2024 Fonticons, Inc. --><path d="M160 479.6l23.7-26 80-88 21.5-23.7-47.4-43-21.5 23.7L192 349.2 192 64l0-32-64 0 0 32 0 285.2-24.3-26.8L82.2 298.8l-47.4 43 21.5 23.7 80 88 23.7 26zM416 288L304 480l224 0L416 288zM512 32L320 32l0 192 192 0 0-192z"/></svg>

<svg xmlns="http://www.w3.org/2000/svg" viewBox="0 0 576 512"><!--! Font Awesome Pro 6.4.0 by @fontawesome - https://fontawesome.com License - https://fontawesome.com/license (Commercial License) Copyright 2023 Fonticons, Inc. --><path d="M160 479.6l23.7-26 80-88 21.5-23.7-47.4-43-21.5 23.7L192 349.2V64 32H128V64 349.2l-24.3-26.8L82.2 298.8l-47.4 43 21.5 23.7 80 88 23.7 26zM416 288L304 480H528L416 288zM512 32H320V224H512V32z"/></svg>
